src/lib/packages/icons/src/assets/line/message-times-alt.svg

<svg width="24" height="24" viewBox="0 0 24 24" fill="none" xmlns="http://www.w3.org/2000/svg">
<path d="M18 2.25H6C3.582 2.25 2.25 3.582 2.25 6V21C2.25 21.303 2.43289 21.577 2.71289 21.693C2.80589 21.732 2.903 21.75 3 21.75C3.195 21.75 3.38703 21.674 3.53003 21.53L6.31006 18.75H18C20.418 18.75 21.75 17.418 21.75 15V6C21.75 3.582 20.418 2.25 18 2.25ZM20.25 15C20.25 16.577 19.577 17.25 18 17.25H6C5.801 17.25 5.60997 17.329 5.46997 17.47L3.75 19.1899V6C3.75 4.423 4.423 3.75 6 3.75H18C19.577 3.75 20.25 4.423 20.25 6V15ZM15.03 8.53003L13.0601 10.5L15.03 12.47C15.323 12.763 15.323 13.238 15.03 13.531C14.884 13.677 14.692 13.751 14.5 13.751C14.308 13.751 14.116 13.678 13.97 13.531L12 11.561L10.03 13.531C9.88403 13.677 9.692 13.751 9.5 13.751C9.308 13.751 9.11597 13.678 8.96997 13.531C8.67697 13.238 8.67697 12.763 8.96997 12.47L10.9399 10.5L8.96997 8.53003C8.67697 8.23703 8.67697 7.76199 8.96997 7.46899C9.26297 7.17599 9.73801 7.17599 10.031 7.46899L12.001 9.43896L13.9709 7.46899C14.2639 7.17599 14.739 7.17599 15.032 7.46899C15.325 7.76199 15.323 8.23703 15.03 8.53003Z" fill="currentColor"/>
</svg>

<svg xmlns="http://www.w3.org/2000/svg" width="24" height="24" fill="none"><path fill="currentColor" d="M18 2.25H6C3.582 2.25 2.25 3.582 2.25 6v15a.75.75 0 0 0 1.28.53l2.78-2.78H18c2.418 0 3.75-1.332 3.75-3.75V6c0-2.418-1.332-3.75-3.75-3.75ZM20.25 15c0 1.577-.673 2.25-2.25 2.25H6a.747.747 0 0 0-.53.22l-1.72 1.72V6c0-1.577.673-2.25 2.25-2.25h12c1.577 0 2.25.673 2.25 2.25v9Zm-5.22-6.47-1.97 1.97 1.97 1.97a.75.75 0 0 1-1.06 1.061L12 11.561l-1.97 1.97a.748.748 0 0 1-1.06 0 .75.75 0 0 1 0-1.061l1.97-1.97-1.97-1.97a.75.75 0 0 1 1.061-1.061l1.97 1.97 1.97-1.97A.75.75 0 1 1 15.03 8.53Z"/></svg>
